Dominus_Dark_Funeral/scalable/apps/vmware.svg

<?xml version="1.0" encoding="UTF-8" standalone="no"?><svg xmlns:dc="http://purl.org/dc/elements/1.1/" xmlns:cc="http://creativecommons.org/ns#" xmlns:rdf="http://www.w3.org/1999/02/22-rdf-syntax-ns#" xmlns="http://www.w3.org/2000/svg" xmlns:xlink="http://www.w3.org/1999/xlink" width="48" height="48" viewBox="0 0 12.7 12.7"><metadata><rdf:RDF><cc:Work><dc:format>image/svg+xml</dc:format><dc:type rdf:resource="http://purl.org/dc/dcmitype/StillImage"/><dc:title/></cc:Work></rdf:RDF></metadata><defs><linearGradient id="b"><stop offset="0"/><stop offset="1" stop-opacity="0"/></linearGradient><linearGradient id="a"><stop offset="0" stop-color="#999"/><stop offset="1" stop-color="#e3dbdb"/></linearGradient><linearGradient xlink:href="#a" id="c" x1="6.35" y1=".1" x2="6.35" y2="12.08" gradientUnits="userSpaceOnUse"/><filter id="e" x="-.04" width="1.07" y="-.04" height="1.07" color-interpolation-filters="sRGB"><feGaussianBlur stdDeviation=".09"/></filter><linearGradient xlink:href="#b" id="d" gradientUnits="userSpaceOnUse" x1="1.01" y1=".49" x2="15.37" y2="11.59"/></defs><path d="M6.35.1C4.81.1 3.57.38 2.66.96A3.67 3.67 0 0 0 1 4.22c0 1.91 1.54 4.47 2.01 5.2.54.85 1.13 1.61 1.65 2.16.68.7 1.21 1.03 1.69 1.03s1.01-.33 1.69-1.03a15.2 15.2 0 0 0 1.65-2.15c.47-.74 2-3.3 2-5.21 0-1.42-.57-2.54-1.65-3.25A6.75 6.75 0 0 0 6.35.1z" fill="url(#c)"/><path d="M7.4 12.12c.2-.16.4-.3.64-.54a15.2 15.2 0 0 0 .97-1.17 15.2 15.2 0 0 0 .68-.98c.23-.37.73-1.2 1.18-2.17.22-.48.42-1 .57-1.52.12-.39.15-.76.19-1.12l-2.1-2.1-.1.08-.96-.97-4.01.21v2.2h-1.1L3.18 7.9z" opacity=".55" fill="url(#d)" stroke-width=".26"/><path d="M4.46 1.84v2.2h-1.1v4.07h4.19V6.78h-.43v.93H3.78V4.46h.68v1.43H5.5v.89h4.2V2.73H8.65v-.9zm.42.4h3.34v.49H5.5v1.32h-.63zm1.06.89h2.28v2.35h-.67V4.05H5.94zm2.7 0h.64v3.24H5.94v-.48h1.18v.47h.43V5.9h1.1zM4.89 4.46h.63v1.02h-.63zm1.06 0h1.18v1.02H5.94z" fill="#1a1a1a" filter="url(#e)"/><path d="M4.28 1.63v4.05h4.19V1.63zm.42.4h3.34v3.24H4.7z" fill="#f2f2f2"/><path d="M5.33 2.52v4.05h4.2V2.52zm.43.4H9.1v3.24H5.76z" fill="#ff7f2a"/><path d="M3.18 3.84V7.9h4.19V6.57h-.43v.93H3.6V4.25h.68v-.41zm1.52 0v.41h2.24v1.02h.43V3.84zm2.24 1.84v.48h.43v-.48z" fill="#0055d4"/><path d="M1.04 3.9c0 .1-.04.2-.04.32 0 1.91 1.54 4.47 2.01 5.2.54.85 1.13 1.61 1.65 2.16.68.7 1.21 1.03 1.69 1.03s1.01-.33 1.69-1.03a15.2 15.2 0 0 0 1.65-2.15c.47-.74 2-3.3 2-5.21 0-.11-.02-.21-.03-.32a5.5 5.5 0 0 1-.21 1.3c-.15.53-.36 1.05-.58 1.53-.44.97-.95 1.8-1.18 2.17a15.2 15.2 0 0 1-1.65 2.15 4.9 4.9 0 0 1-.92.78c-.28.17-.53.25-.77.25s-.5-.08-.77-.25a4.76 4.76 0 0 1-.92-.78A14.41 14.41 0 0 1 3.01 8.9a19.2 19.2 0 0 1-1.18-2.17c-.22-.48-.43-1-.58-1.52a5.66 5.66 0 0 1-.21-1.31z" opacity=".5"/></svg>

<?xml version="1.0" encoding="UTF-8" standalone="no"?>
<svg
   xmlns:dc="http://purl.org/dc/elements/1.1/"
   xmlns:cc="http://creativecommons.org/ns#"
   xmlns:rdf="http://www.w3.org/1999/02/22-rdf-syntax-ns#"
   xmlns:svg="http://www.w3.org/2000/svg"
   xmlns="http://www.w3.org/2000/svg"
   xmlns:xlink="http://www.w3.org/1999/xlink"
   xmlns:sodipodi="http://sodipodi.sourceforge.net/DTD/sodipodi-0.dtd"
   xmlns:inkscape="http://www.inkscape.org/namespaces/inkscape"
   width="48"
   height="48"
   viewBox="0 0 12.7 12.7"
   version="1.1"
   id="svg35"
   sodipodi:docname="vmware.svg"
   inkscape:version="0.92.4 (5da689c313, 2019-01-14)">
  <sodipodi:namedview
     pagecolor="#ffffff"
     bordercolor="#666666"
     borderopacity="1"
     objecttolerance="10"
     gridtolerance="10"
     guidetolerance="10"
     inkscape:pageopacity="0"
     inkscape:pageshadow="2"
     inkscape:window-width="1112"
     inkscape:window-height="480"
     id="namedview37"
     showgrid="false"
     inkscape:zoom="4.9166667"
     inkscape:cx="2.1355932"
     inkscape:cy="24"
     inkscape:window-x="0"
     inkscape:window-y="25"
     inkscape:window-maximized="0"
     inkscape:current-layer="svg35" />
  <metadata
     id="metadata2">
    <rdf:RDF>
      <cc:Work>
        <dc:format>image/svg+xml</dc:format>
        <dc:type
           rdf:resource="http://purl.org/dc/dcmitype/StillImage" />
        <dc:title></dc:title>
      </cc:Work>
    </rdf:RDF>
  </metadata>
  <defs
     id="defs19">
    <linearGradient
       id="b">
      <stop
         offset="0"
         id="stop4" />
      <stop
         offset="1"
         stop-opacity="0"
         id="stop6" />
    </linearGradient>
    <linearGradient
       id="a">
      <stop
         offset="0"
         stop-color="#999"
         id="stop9" />
      <stop
         offset="1"
         stop-color="#e3dbdb"
         id="stop11" />
    </linearGradient>
    <linearGradient
       xlink:href="#a"
       id="c"
       x1="6.35"
       y1=".1"
       x2="6.35"
       y2="12.08"
       gradientUnits="userSpaceOnUse" />
    <filter
       id="e"
       x="-.04"
       width="1.07"
       y="-.04"
       height="1.07"
       color-interpolation-filters="sRGB">
      <feGaussianBlur
         stdDeviation=".09"
         id="feGaussianBlur15" />
    </filter>
    <linearGradient
       xlink:href="#b"
       id="d"
       gradientUnits="userSpaceOnUse"
       x1="1.01"
       y1=".49"
       x2="15.37"
       y2="11.59" />
  </defs>
  <path
     d="M 6.35,0.1 C 4.81,0.1 3.57,0.38 2.66,0.96 A 3.67,3.67 0 0 0 1,4.22 c 0,1.91 1.54,4.47 2.01,5.2 0.54,0.85 1.13,1.61 1.65,2.16 0.68,0.7 1.21,1.03 1.69,1.03 0.48,0 1.01,-0.33 1.69,-1.03 A 15.2,15.2 0 0 0 9.69,9.43 c 0.47,-0.74 2,-3.3 2,-5.21 0,-1.42 -0.57,-2.54 -1.65,-3.25 A 6.75,6.75 0 0 0 6.35,0.1 Z"
     id="path21"
     style="fill:url(#c)"
     inkscape:connector-curvature="0" />
  <path
     d="m 7.4,12.12 c 0.2,-0.16 0.4,-0.3 0.64,-0.54 A 15.2,15.2 0 0 0 9.01,10.41 15.2,15.2 0 0 0 9.69,9.43 c 0.23,-0.37 0.73,-1.2 1.18,-2.17 0.22,-0.48 0.42,-1 0.57,-1.52 0.12,-0.39 0.15,-0.76 0.19,-1.12 L 9.53,2.52 9.43,2.6 8.47,1.63 4.46,1.84 v 2.2 H 3.36 L 3.18,7.9 Z"
     id="path23"
     style="opacity:0.55;fill:url(#d);stroke-width:0.25999999"
     inkscape:connector-curvature="0" />
  <path
     d="m 4.46,1.84 v 2.2 H 3.36 V 8.11 H 7.55 V 6.78 H 7.12 V 7.71 H 3.78 V 4.46 H 4.46 V 5.89 H 5.5 V 6.78 H 9.7 V 2.73 H 8.65 v -0.9 z m 0.42,0.4 H 8.22 V 2.73 H 5.5 V 4.05 H 4.87 Z M 5.94,3.13 H 8.22 V 5.48 H 7.55 V 4.05 H 5.94 Z m 2.7,0 H 9.28 V 6.37 H 5.94 V 5.89 H 7.12 V 6.36 H 7.55 V 5.9 h 1.1 z M 4.89,4.46 H 5.52 V 5.48 H 4.89 Z m 1.06,0 H 7.13 V 5.48 H 5.94 Z"
     id="path25"
     inkscape:connector-curvature="0"
     style="fill:#1a1a1a;filter:url(#e)" />
  <path
     d="M 4.28,1.63 V 5.68 H 8.47 V 1.63 Z M 4.7,2.03 H 8.04 V 5.27 H 4.7 Z"
     id="path27"
     inkscape:connector-curvature="0"
     style="fill:#f2f2f2" />
  <path
     d="m 5.33,2.52 v 4.05 h 4.2 V 2.52 Z m 0.43,0.4 H 9.1 V 6.16 H 5.76 Z"
     id="path29"
     inkscape:connector-curvature="0"
     style="fill:#ff7f2a" />
  <path
     d="M 3.18,3.84 V 7.9 H 7.37 V 6.57 H 6.94 V 7.5 H 3.6 V 4.25 H 4.28 V 3.84 Z m 1.52,0 V 4.25 H 6.94 V 5.27 H 7.37 V 3.84 Z M 6.94,5.68 V 6.16 H 7.37 V 5.68 Z"
     id="path31"
     inkscape:connector-curvature="0"
     style="fill:#0055d4" />
  <path
     d="M 1.04,3.9 C 1.04,4 1,4.1 1,4.22 c 0,1.91 1.54,4.47 2.01,5.2 0.54,0.85 1.13,1.61 1.65,2.16 0.68,0.7 1.21,1.03 1.69,1.03 0.48,0 1.01,-0.33 1.69,-1.03 A 15.2,15.2 0 0 0 9.69,9.43 c 0.47,-0.74 2,-3.3 2,-5.21 0,-0.11 -0.02,-0.21 -0.03,-0.32 A 5.5,5.5 0 0 1 11.45,5.2 C 11.3,5.73 11.09,6.25 10.87,6.73 10.43,7.7 9.92,8.53 9.69,8.9 A 15.2,15.2 0 0 1 8.04,11.05 4.9,4.9 0 0 1 7.12,11.83 C 6.84,12 6.59,12.08 6.35,12.08 6.11,12.08 5.85,12 5.58,11.83 A 4.76,4.76 0 0 1 4.66,11.05 14.41,14.41 0 0 1 3.01,8.9 19.2,19.2 0 0 1 1.83,6.73 C 1.61,6.25 1.4,5.73 1.25,5.21 A 5.66,5.66 0 0 1 1.04,3.9 Z"
     id="path33"
     inkscape:connector-curvature="0"
     style="opacity:0.5" />
</svg>
